X: 23468
T: Levantine's Barrel
R: barndance
M: 4/4
K: Dmajor
|:fe|dfAd f2 fe|d2 ba ^gafd|ceAc eAce|defg a2 fe|
dfAd f2 fe|d2 ba ^gafd|ceAc eAce|d2 f2 d2:|
|:A2|B2 Bc d2 cB|AB^GA F2 ed|c2 Ac eAce|d2 e/f/g a2 A2|
B2 Bc d/e/d cB|AB^GA F4|ceAc eAce|d2 f2 d2:|

